X: 33
T: Pine Apple Rag
C: Scott Joplin
%%abc-version 2.0
%%abcx-abcm2ps-target-version 5.9.1 (29 Sep 2008)
%%abc-creator hum2abc beta
%%abcx-conversion-date 2021/07/20 09:00:57
%%abc-copyright Copyright 2004 by Craig Stuart Sapp
%%abc-edited-by Craig Stuart Sapp
%%abc-edited-by Craig Stuart Sapp
%%abcx-initial-encoding-date 2004/06/07
%%humdrum-veritas 1033822597
%%humdrum-veritas-data 1877723957
%%removed 0's from note length
%%linebreak <none>
%%barnumbers 0
L: 1/8
M: 2/4
N: Derived from pineapple.krn
Q: "Slow March tempo. [quarter]=100" 1/4=100
%%staves {1 2}
V: 1 clef=treble
V: 2 clef=bass
K: Bb
[V:1] [K:clef=treble][M:2/4]G/FE/ D/^C/D/=C/ | 
[V:2] [K:clef=bass][M:2/4]G,/F,E,/ D,/^C,/D,/=C,/ | 
[V:1] B,/C/D/F/-F2 | 
[V:2] B,,/C,/D,/F,/-F,2 | 
[V:1] G/G^F/ G/A/B | 
[V:2] G,/G,^F,/ G,/A,/B, | 
[V:1] cF- FF ]|:  
[V:2] CF,- F,F, ]|:  
[V:1] [g/d/B/]fe/ d/^c/d/=c/ | 
[V:2] B,,[DB,F,] F,,[DB,F,] | 
[V:1] B/c/d/f/- f/b/[d'f] | 
[V:2] B,,[DB,F,] F,,[DB,F,] | 
[V:1] [g/d/B/]fe/ d/^c/d/e/ | 
[V:2] B,,[DB,F,] F,,[DB,F,] | 
[V:1] [fdB][f/B/]d/ [f/B/]d/[fB] | 
[V:2] B,,D,F,_A, | 
[V:1] B/[be]B/ [be]B/[b/d/]- | 
[V:2] G,[EB,G,] _G,[EB,G,] & [G,2G,,2][_G,2_G,,2] | 
[V:1] [b/d/]d'/b/d/ f/=e/f/g/ & x2B2 | 
[V:2] [F,F,,][DB,F,] [D,D,,][_D,_D,,] | 
[V:1] a/[fc]a/ [g=eB][a/e/B/][f/A/]- | 
[V:2] [C,C,,][FCA,] [C,C,,][=ECB,] | 
[V:1] [fA]A/B/ c/d/_e/f/ | 
[V:2] [F,F,,]C,A,,F,, | 
[V:1] [g/d/B/]fe/ d/^c/d/=c/ | 
[V:2] B,,[DB,F,] F,,[DB,F,] | 
[V:1] B/c/d/f/- f/b/[d'f] | 
[V:2] B,,[DB,F,] F,,[DB,F,] | 
[V:1] [g/d/B/]fe/ d/^c/d/e/ | 
[V:2] B,,[DB,F,] F,,[DB,F,] | 
[V:1] [fdB][f/B/]d/ [f/B/]d/[fB] | 
[V:2] B,,D,F,_A, | 
[V:1] B/[be]B/ [be]B/[b/d/]- | 
[V:2] G,[EB,G,] _G,[EB,G,] & [G,2G,,2][_G,2_G,,2] | 
[V:1] [b/d/]d'/b/f/ d/f/g/b/ |[1 
[V:2] [F,F,,][DB,F,] [F,F,,][DB,F,] | 
[V:1] B2c/dB/- & =E_E [A3/E3/]D/- | 
[V:2] [G,G,,][_G,_G,,][F,2F,,2] | 
[V:1] [BD]B/c/ d/e/[feA] :|][2 
[V:2] [B,B,,] z z [F,F,,] :|]  
[V:1] B2c/dB/- & =E_E [A3/E3/]D/- | 
[V:2] [G,G,,][_G,_G,,][F,2F,,2] | 
[V:1] BF/=E/ F/^F/G/^G/ & Dx3 ]|: 
[V:2] [B,B,,] z z [=B,=B,,] ]|:  
[V:1] A/[aec]G/ [gec]A/[a/e/c/]- | 
[V:2] [CC,][EA,F,] [F,F,,][EA,F,] | 
[V:1] [a/e/c/]G/[gec] [aecA][gecG] | 
[V:2] [CC,][EA,F,] [F,F,,][EA,F,] | 
[V:1] G/[gdB]F/ [fdB]G/[g/-d/-B/] | 
[V:2] [B,B,,][DB,F,] [F,F,,][DB,F,] | 
[V:1] [g/d/B/]F/[fdB] [gdBG][fdBF] | 
[V:2] [B,B,,][DB,F,] [F,F,,][DB,F,] | 
[V:1] f/[f'c'a]e/ [e'c'a]d/[d'/a/f/]- | 
[V:2] [A,A,,][EA,F,] [F,F,,][EA,F,] | 
[V:1] [d'/a/f/]e/[e'c'a] [d'fd][c'fc] | 
[V:2] [A,A,,][EA,F,] [F,F,,][EA,F,] | 
[V:1] c/[c'f]B/- [bfB][g^cBG] | 
[V:2] [B,B,,][DB,F,] [B,B,,][^CB,=E,] | 
[V:1] [fdBF]F/=E/ F/^F/G/^G/ | 
[V:2] [DB,F,] z z [=B,=B,,] | 
[V:1] A/[aec]G/ [gec]A/[a/e/c/]- | 
[V:2] [CC,][EA,F,] [F,F,,][EA,F,] | 
[V:1] [a/e/c/]G/[gec] [aecA][gecG] | 
[V:2] [CC,][EA,F,] [F,F,,][EA,F,] | 
[V:1] G/[gdB]F/ [fdB]G/[g/d/B/]- | 
[V:2] [B,B,,][DB,F,] [F,F,,][DB,F,] | 
[V:1] [g/d/B/]F/[fdB] [gdBG][fdBF] | 
[V:2] [B,B,,][DB,F,] [F,F,,][DB,F,] | 
[V:1] _G/[_geB]B/- [bgeB][geBG] | 
[V:2] [E,E,,][EB,_G,] [G,_G,,][E,E,,] | 
[V:1] F/[fdB]=E/- [=e^cBE][fdBF] | 
[V:2] [D,D,,][DB,F,] [^C,^C,,][D,D,,] | 
[V:1] _e/[c'a]f/- [d'af][c'ae] |[1 
[V:2] [F,F,,][EA,F,] [F,F,,][EA,F,] | 
[V:1] [bd]F/=E/ F/^F/G/^G/ :|][2 
[V:2] [B,B,,] z z [=B,=B,,] :|]  
[V:1] [bd]B/c/ d/e/[feA] || 
[V:2] [B,B,,] z z [F,F,,] ||  
[V:1] [g/d/B/]fe/ d/^c/d/=c/ | 
[V:2] B,,[DB,F,] F,,[DB,F,] | 
[V:1] B/c/d/f/- f/b/[d'f] | 
[V:2] B,,[DB,F,] F,,[DB,F,] | 
[V:1] [g/d/B/]fe/ d/^c/d/e/ | 
[V:2] B,,[DB,F,] F,,[DB,F,] | 
[V:1] [fdB][f/B/]d/ [f/B/]d/[fB] | 
[V:2] B,,D,F,_A, | 
[V:1] B/[be]B/ [be]B/[b/d/]- | 
[V:2] G,[EB,G,] _G,[EB,G,] & [G,2G,,2][_G,2_G,,2] | 
[V:1] [b/d/]d'/b/d/ f/=e/f/g/ & x2B2 | 
[V:2] [F,F,,][DB,F,] [D,D,,][_D,_D,,] | 
[V:1] a/[fc]a/ [g=eB][a/e/B/][f/A/]- | 
[V:2] [C,C,,][FCA,] [C,C,,][=ECB,] | 
[V:1] [fA]A/B/ c/d/e/f/ | 
[V:2] [F,F,,]C,A,,F,, | 
[V:1] [g/d/B/]fe/ d/^c/d/=c/ | 
[V:2] B,,[DB,F,] F,,[DB,F,] | 
[V:1] B/c/d/f/- f/b/[d'f] | 
[V:2] B,,[DB,F,] F,,[DB,F,] | 
[V:1] [g/d/B/]fe/ d/^c/d/e/ | 
[V:2] B,,[DB,F,] F,,[DB,F,] | 
[V:1] [fdB][f/B/]d/ [f/B/]d/[fB] | 
[V:2] B,,D,F,_A, | 
[V:1] B/[be]B/ [be]B/[b/d/]- | 
[V:2] G,[EG,] _G,[EB,G,] & [G,2G,,2][_G,2_G,,2] | 
[V:1] [b/d/]d'/b/f/ d/f/g/b/ | 
[V:2] [F,F,,][DB,F,] [F,F,,][DB,F,] | 
[V:1] B2c/dB/- & =E_E [A3/E3/]D/- | 
[V:2] [G,G,,][_G,_G,,][F,2F,,2] | 
[V:1] [B2D2]-B/[c/_A/][B/G/][A/F/] & x2D2 ]|:  
[V:2] B,2-B,2 & B,,F,B,,2 ]|:  
[V:1]  [K:Eb] [G/E/B,/][^FE=A,][G/E/B,/]-[G2E2B,2] | 
[V:2]  [K:Eb] E,,C, B,,/E,/B,,/G,,/ | 
[V:1] [G/E/B,/][^FE=A,][G/E/B,/]-[G2E2B,2] | 
[V:2] E,,C, B,,/E,/B,,/G,,/ | 
[V:1] E/F_G/- G/F/E & [CE]>[EC]-[E2C2] | 
[V:2] A,,E, A,,E, & A,,2A,,2 | 
[V:1] [=G2E2B,2][A/F/][c/A/][B/G/][A/F/] & x2D2 | 
[V:2] E,,/B,,/E,/G,/B,2 & E,,2x2 | 
[V:1] [G/E/B,/][^FE=A,][G/E/B,/]- [GEB,][ecG] | 
[V:2] E,,C, B,,/E,/C, | 
[V:1] [e/B/G/][dBG][d/B/G/]- [dBG][bgd] | 
[V:2] D,G, B,/G,/D, | 
[V:1] b/=aa/- a/b/a & [^fc]>[fc]- [fc][fc] | 
[V:2] D,[DC] D,[DC] & D,2D,2 | 
[V:1] [g2B2][B/G/][c/_A/][B/G/][A/F/] & x2D2 | 
[V:2] [D2B,2]x2 & G,D,/G,/B,2 | 
[V:1] [G/E/B,/][^FE=A,][G/E/B,/]-[G2E2B,2] | 
[V:2] E,,C, B,,/E,/B,,/G,,/ | 
[V:1] [G/E/B,/][^FE=A,][G/E/B,/]-[G2E2B,2] | 
[V:2] E,,C, B,,/E,/B,,/G,,/ | 
[V:1] E/F_G/- G/F/E & C>[EC]-[E2C2] | 
[V:2] A,,E, A,,E, & A,,2A,,2 | 
[V:1] [=G2E2B,2]-[GEB,][BE_D] | 
[V:2] E,,/G,,/B,,/E,/ B,,G,, | 
[V:1] B/Ac/- c/=B/c & [EC]>[AE]- [AE][^FE] | 
[V:2] A,,E, A,,=A,, & A,,2x2 | 
[V:1] c/_Bg/- g/e/G & [GE]>[eB]- [eB]E | 
[V:2] B,,B, B,,B, & B,,2B,,2 | 
[V:1] G/F[c/A/]- [c/A/]B/G & [DA,]>D- D[DA,] |[1 
[V:2] B,,B,,, B,,B,,, | 
[V:1] [EG,]B,/C/ D/E/F/^F/ :|][2 
[V:2] [E,B,,E,,] z[A,2F,2B,,2] :|]  
[V:1] [E2G,2]-[E/G,/][d/D/][e/E/][f/F/] ]|: 
[V:2] [E,B,,E,,]G,,B,,E, ]|:  
[V:1] [_g/e/_c/_G/][gecG][g/e/c/G/]-[g2e2c2G2]- | 
[V:2] _C,_D,E,_G, | 
[V:1] [g/e/c/G/][e/_c/][_g/_G/]c/ e/[gG][e/c/] | 
[V:2] _C_G,E,_C, | 
[V:1] [=g/e/B/=G/][geBG][g/e/B/G/]-[g2e2B2G2]- | 
[V:2] B,,E,F,=G, | 
[V:1] [g/e/B/G/][g/e/][b/B/]e/ f/[g3/e3/B3/] | 
[V:2] B,G,E,B,, | 
[V:1] [c'/a/][bg][a/f/]- [a/f/][g/e/][fd] | 
[V:2] [D,D,,][DB,A,] [B,,B,,,][DB,A,] | 
[V:1] [=e/^c/][fd][f/d/]- [f/d/][g/_e/][af] | 
[V:2] [B,B,,][DB,A,] [B,,B,,,][DB,A,] | 
[V:1] [c'/g/e/]b[g/B/]- [g/B/][f/A/][eG] | 
[V:2] [E,E,,][EB,G,] [B,,B,,,][EB,G,] | 
[V:1] [^f/=A/][gB][g/B/]- [g/B/][d/D/][e/E/][=f/=F/] | 
[V:2] [E,E,,][EB,G,] [B,G,] z | 
[V:1] [_g/e/_c/_G/][gecG][g/e/c/G/]-[g2e2c2G2]- | 
[V:2] _C,_D,E,_G, | 
[V:1] [g/e/c/G/][e/_c/][_g/_G/]c/ e/[gG][e/c/] | 
[V:2] _C_G,E,_C, | 
[V:1] [=g/e/B/=G/][geBG][g/e/B/G/]-[g2e2B2G2]- | 
[V:2] B,,E,F,=G, | 
[V:1] [g/e/B/G/][g/e/][b/B/]e/ f/[g3/e3/B3/] | 
[V:2] B,G,E,B,, | 
[V:1] [g/e/c/][gec][f/e/c/]- f/e/f & x2[ec][e_c] | 
[V:2] A,,C,E,A, | 
[V:1] [g/e/B/][geB][b/e/B/]- b/e/g & x2[eB][eB] | 
[V:2] B,,E,G,B, | 
[V:1] b/ag/- g/f/g & [dB]>[dA]- [dA][dA] |[1 
[V:2] [F,F,,][DB,A,] [B,,B,,,][DB,A,] | 
[V:1] [e2B2G2]-[e/B/G/][d/D/][e/E/][f/F/] :|][2 
[V:2] [E,E,,]G,,B,,E, :|]  
[V:1] [e2B2G2][e'bge] z |]  
[V:2] [E,E,,]B,, E,, z |]  


